X:250
T:No You Step Back
C:David Grisman
N:TablEdited by Greg Rohrer
L:1/8
Q:1/4=230
M:4/4
K:C
z8 |: "C"G,A, CE DE Gc | Ac dg eg ed | cA Gc Ac AG | EG ED "Am"[E2A,2] [E2A,2] | 
"C"G,A, CE DE Gc | Ac dg eg ed | cA Gc Ac AG |1 EG ED "C"C2 C2 :|2 EG2E "C"C4 | 
|: "Am"[A2A2] AB cB Ac | (3BcB GB AG ED | [A2A2] AB cB Ac | BA d2 "E"[e4e4] | 
"Am"[A2A2] AB cB Ac | (3BcB GB AG E2 | [A4A4] D^D ED | "E"DC A,G, "Am"[E2A,2] [E2A,2] :| z8 | 
"Ending"c'a ge ag ea | ge dg ed cd | cA Gc AG ED | C4 [e4c4E4G,4] | 
 

